assets/minitab/plain.svg

<svg viewBox="0 0 128 128" xmlns="http://www.w3.org/2000/svg"><path d="m0 0v128h128v-128zm34.6 106.5h-19.8v-54h19.7v54zm27.1 0h-19.7v-87h19.7zm27.1 0h-19.7v-68.9h19.7zm27.2 0h-19.7v-37.9h19.7z" fill="#8dc63f"/></svg>

<svg xmlns="http://www.w3.org/2000/svg" viewBox="0 0 128 128"><path fill="#8dc63f" d="M0 0v128h128V0zm34.6 106.5H14.8v-54h19.7v54zm27.1 0H42v-87h19.7zm27.1 0H69.1V37.6h19.7zm27.2 0H96.3V68.6H116z"/></svg>
